assets/geo-mark.svg

<svg width="24" height="34" viewBox="0 0 24 34" fill="none" xmlns="http://www.w3.org/2000/svg">
<path fill-rule="evenodd" clip-rule="evenodd" d="M0.25 11.4531C0.25 5.24682 5.53663 0.25 12 0.25C18.4634 0.25 23.75 5.24682 23.75 11.4531C23.75 14.9946 21.8136 19.4868 19.5932 23.4959C17.3595 27.5289 14.7825 31.1692 13.3991 33.0374C13.2385 33.2574 13.0284 33.4364 12.7856 33.56C12.5423 33.6838 12.2731 33.7484 12 33.7484C11.7269 33.7484 11.4577 33.6838 11.2144 33.56C10.9716 33.4364 10.7614 33.2573 10.6009 33.0373C9.21748 31.1684 6.64049 27.5267 4.40683 23.4932C2.18646 19.4837 0.25 14.9919 0.25 11.4531ZM12 1.25C6.0415 1.25 1.25 5.84536 1.25 11.4531C1.25 14.7112 3.06354 19.0034 5.28165 23.0087C7.48583 26.989 10.035 30.5921 11.4058 32.4439L11.4082 32.4471L11.4082 32.4472C11.4761 32.5405 11.5651 32.6164 11.668 32.6687C11.7708 32.7211 11.8846 32.7484 12 32.7484C12.1154 32.7484 12.2292 32.7211 12.332 32.6687C12.4349 32.6164 12.5239 32.5405 12.5918 32.4472L12.5943 32.4438C13.9651 30.5928 16.5142 26.9911 18.7184 23.0114C20.9364 19.0066 22.75 14.714 22.75 11.4531C22.75 5.84536 17.9585 1.25 12 1.25ZM12 8.75C10.2051 8.75 8.75 10.2051 8.75 12C8.75 13.7949 10.2051 15.25 12 15.25C13.7949 15.25 15.25 13.7949 15.25 12C15.25 10.2051 13.7949 8.75 12 8.75ZM7.75 12C7.75 9.65279 9.65279 7.75 12 7.75C14.3472 7.75 16.25 9.65279 16.25 12C16.25 14.3472 14.3472 16.25 12 16.25C9.65279 16.25 7.75 14.3472 7.75 12Z" fill="white"/>
</svg>

<svg width="24" height="34" fill="none" xmlns="http://www.w3.org/2000/svg"><path fill-rule="evenodd" clip-rule="evenodd" d="M.25 11.453C.25 5.247 5.537.25 12 .25s11.75 4.997 11.75 11.203c0 3.542-1.936 8.034-4.157 12.043-2.233 4.033-4.81 7.673-6.194 9.541a1.733 1.733 0 01-2.798 0c-1.384-1.869-3.96-5.51-6.194-9.544C2.187 19.483.25 14.992.25 11.453zM12 1.25c-5.958 0-10.75 4.595-10.75 10.203 0 3.258 1.814 7.55 4.032 11.556 2.204 3.98 4.753 7.583 6.124 9.435l.002.003a.73.73 0 001.184 0l.002-.003c1.371-1.851 3.92-5.453 6.124-9.433 2.218-4.004 4.032-8.297 4.032-11.558C22.75 5.845 17.959 1.25 12 1.25zm0 7.5a3.25 3.25 0 100 6.5 3.25 3.25 0 000-6.5zM7.75 12a4.25 4.25 0 118.5 0 4.25 4.25 0 01-8.5 0z" fill="#fff"/></svg>
